!!!!SEGMENT: pl-cz--iii-50--001_brykner-jerzy--vesperae-dixit-dominus.krn
!!!cenid: 17xx:843
!!!COM: Brykner, Jerzy
!!!COM-rismid: pe30025739
!!!CDT: 1705-1760
!!!CNT: Polish
!!!OPR: Vesperae
!!!OTL: Dixit Dominus
!!!OMV: 001
!!!PDT:
!!!AGN: Sacred; Vespers
!!!SMS-siglum: PL-CZ
!!!SMS-shelfmark: III-50
!!!SMS-shelfwork: 001-001 M
!!!SMS-variant:
!!!SMS-altvar:
!!!NIFC-rismid: 300033583
!!!system-decoration: [(s1,s2)][(s3,s4)]s5
!!!key:
**kern	**fba	**kern	**kern	**kern	**text	**kern	**text	**text
*part5	*part5	*part4	*part3	*part2	*part2	*part1	*part1	*part1
*staff5	*staff5	*staff4	*staff3	*staff2	*staff2	*staff1	*staff1	*staff1
*Iorgan	*	*Ivioln	*Ivioln	*Iempty	*	*Ivox	*	*
*I"Organo.	*	*I"Violini Secundo.	*I"Violini Primo.	*I"Baſso.	*	*I"Canto.	*	*
*I'org	*	*I'vl 2	*I'vl 1	*I'B	*	*I'S	*	*
*clefF4	*	*clefG2	*clefG2	*clefF4	*	*clefC1	*	*
*k[]	*	*k[]	*k[]	*k[]	*	*k[]	*	*
*C:	*	*C:	*C:	*C:	*	*C:	*	*
*M4/4	*	*M4/4	*M4/4	*M4/4	*	*M4/4	*	*
*met(c)	*	*met(c)	*met(c)	*met(c)	*	*met(c)	*	*
=1	=1	=1	=1	=1	=1	=1	=1	=1
*2\right	*	*	*	*2\right	*	*	*	*
!	!	!LO:TX:a:t=P:problem=wszystkie nuty mają caudy z prawej strony	!	!	!	!	!	!
!	!	!	!	!LO:SIC:o=D:v:t=w źródle 'D' znajduje się przed kluczem i oznaczeniem metrum	!	!LO:SIC:o=D:v:t=w źródle 'D' znajduje się przed kluczem i oznaczeniem metrum	!	!
!LO:TX:b:Bi:t=Dixit.:problem='Dixit.' znajduje się przed kluczem i oznaczeniem metrum	!	!LO:TX:b:Bi:t=Dixit.:problem='Dixit.' znajduje się przed kluczem i oznaczeniem metrum	!LO:TX:b:Bi:t=Dixit:problem='Dixit' znajduje się przed kluczem i oznaczeniem metrum	!	!	!	!	!
!LO:TX:a:Bi:t=Tutti	!	!LO:TX:a:Bi:t=Allegro.	!	!LO:TX:a:Bi:t=Tutti.	!	!LO:TX:a:Bi:t=Tutti.	!	!
!	!	!LO:TX:a:Bi:t=Img:rj	!	!	!	!	!	!
4C/	.	4cc\	8ee\L	4c\	Di-	4ee\	Di-	Cum
.	.	.	8ccc\	.	.	.	.	.
4G\	.	4b\	8dd\	4B\	-xit	4dd\	-xit	in-
.	.	.	8gg\J	.	.	.	.	.
8c\L	.	16cc\LL	16ee\LL	8c\	Do-	8ee\	Do-	-vo-
.	.	16g\	16ff\J	.	.	.	.	.
8G\	.	16a\	8gg\J	16G\	-mi-	16b\	-mi-	-ca-
.	.	16b\JJ	.	16G\	-n(us)	16b\	-n(us)	-rem
8A\	.	8cc\L	8ff\L	8A\	Do-	8cc\	Do-	ex-
8B\J	.	8dd\J	16ee\L	16B\	-mi-	16dd\	-mi-	-au-
.	.	.	16dd\JJ	16B\	-no	16dd\	-no	-di-
=2	=2	=2	=2	=2	=2	=2	=2	=2
!LO:TX:a:t=P:problem=mixed beam	!	!	!	!	!	!	!	!
8c\L	.	16ee\LL	16ee\LL	8c\	me-	8ee\	me-	-vit
.	.	16dd\	16ff\	.	.	.	.	.
8C/	.	16ee\	16ee\	8c\	-o	8ee\	-o	me
.	.	16dd\JJ	16ff\JJ	.	.	.	.	.
8E/	.	8cc\L	8gg\L	8r	.	8r	.	.
8C/J	.	[>8ee\J	8gg\J	4c\	Se-	4ee\	Se-	De-
4.G\	4	8ee\L]	16gg\LL	.	.	.	.	.
.	3	.	16aa\	.	.	.	.	.
.	.	16dd\L	16gg\	16B\	-de	16dd\	-de	-us
.	.	16cc\JJ	16aa\JJ	16A\	a	16cc\	a	Jus-
.	.	8dd\L	8bb\L	8B\	dex-	8dd\	dex-	-ti-
8c\	.	16ee\L	[>8ccc\J	8c\	-tris	8cc\	-tris	-tiae
.	.	16ff\JJ	.	.	.	.	.	.
=3	=3	=3	=3	=3	=3	=3	=3	=3
2G\	4	8ee\L	8ccc\L]	2G\	me-	8cc\L	me-	me-
.	3	16dd\L	16bb\L	.	.	16b\L	.	.
.	.	16cc\JJ	16aa\JJ	.	.	16a\JJ	.	.
.	.	4dd\	4bb\	.	.	4b\	.	-ae
4C/	.	4cc\	4ccc\	4C/	-is.	8cc\	-is,	In
.	.	.	.	.	.	4ee\	Do-	tri-
!LO:TX:a:Bi:t=Solo.	!	!	!	!	!	!	!	!
!LO:TX:a:t=P:problem=mixed beam	!	!	!	!	!	!	!	!
8c\L	.	4r	4r	4r	.	.	.	.
8C/J	.	.	.	.	.	16dd\LL	-nec	-bu-
.	.	.	.	.	.	16cc\JJ	.	.
=4	=4	=4	=4	=4	=4	=4	=4	=4
!	!	!	!	!LO:TX:a:Bi:t=1.	!	!	!	!
8BB/L	6	1r	1r	1r	.	8dd\	po-	-la-
8GG/	.	.	.	.	.	8g/	-nam	-ti-
!	!	!	!	!	!	!LO:SIC:custos ee:v	!	!
!	!	!	!	!	!	!LO:LB:g=original	!	!
8C/	.	.	.	.	.	16ee\	i-	-o-
.	.	.	.	.	.	16dd\	-ni-	-ne
8AA/J	.	.	.	.	.	16cc\	-mi-	di-
.	.	.	.	.	.	16b\	-cos	-la-
4D\	#	.	.	.	.	8a\	tu-	-ta-
.	.	.	.	.	.	16a\	-os	-sti
!	!	!	!	!	!	!LO:TX:a:t=P:problem=w źródle oddechy jako rozdzielacze słów	!	!
.	.	.	.	.	.	16b,\	sca-	.
8E\L	6	.	.	.	.	8cc\	-bel-	mi-
8F#X\J	.	.	.	.	.	16b\LL	-lum	-hi
.	.	.	.	.	.	16a\JJ	.	.
=5	=5	=5	=5	=5	=5	=5	=5	=5
8G\L	.	2r	2r	8r	.	8b\	pe-	mi-
8C\J	.	.	.	8A\	Vir-	16a\	-du(m)	.
.	.	.	.	.	.	16g\	tu-	.
4D\	4	.	.	16A\LL	-gam	4f#X/	-o-	-hi
.	#	.	.	16B\JJ	.	.	.	.
.	.	.	.	16c\LL	vir-	.	.	.
.	.	.	.	16d\JJ	.	.	.	.
!	!	!	!LO:LB:g=original	!	!	!	!	!
!LO:TX:a:t=P:problem=mixed beam	!	!	!	!	!	!	!	!
8G\L	.	8r	8r	16B\LL	-tu-	4g/	-rum,	.
.	.	.	.	16c\JJ	.	.	.	.
8GG/	.	8dd\	8b\L	16d\LL	-tis	.	.	.
.	.	.	.	16G\JJ	.	.	.	.
8AA/	6	8cc\L	8cc\	4Fn\	tu-	4r	.	.
8BB/J	.	16b\L	8dd\J	.	.	.	.	.
.	.	16a\JJ	.	.	.	.	.	.
!	!	!LO:LB:g=original	!	!	!	!	!	!
=6	=6	=6	=6	=6	=6	=6	=6	=6
4C/	.	8g/L	8ee\L	8E\	-ae	2r	.	.
.	.	8b/	8gg\J	8E\	e-	.	.	.
8F\L	.	8cc/	8cc\L	8A\	-mit-	.	.	.
8C\J	.	8e/J	16dd\L	16B\LL	-tet	.	.	.
!	!	!	!	!LO:TX:a:t=P:problem=w źródle oddechy jako rozdzielacze słów	!	!	!	!
.	.	.	16ee\JJ	16c,\JJ	.	.	.	.
4D\	6	8f/L	16dd\LL	16B\	Do-	4r	.	.
.	5	.	16cc\	16A\	-mi-	.	.	.
.	.	8f/	16b\	16G#X\	-nus	.	.	.
.	.	.	16a\JJ	16F#X\	ex	.	.	.
!	!	!	!LO:TX:a:t=P:problem=mixed beam	!	!	!	!	!
8E\L	#	8e/	8g#X/L	8G#X\	Sy-	8r	.	.
8e\J	.	8a/J	8ee\J	8E\	-on,	16ee\	Do-	mi-
.	.	.	.	.	.	16ee\	-mi-	-ſe-
!LO:SIC:custos B:v	!	!	!	!	!	!	!	!
!LO:LB:g=original	!	!	!	!	!	!	!	!
=7	=7	=7	=7	=7	=7	=7	=7	=7
8B\L	6\	8g#X/L	8dd\L	8r	.	8dd\	-na-	-re-
8A\	.	8a/	8cc\	16A\	Do-	16cc\	-re	-re
.	.	.	.	16A\	-mi-	16cc\	in	m-
8G#X\	6	8e/	8b\	8G#X\	-na-	8b\	me-	-ei
8F#X\J	.	8e/J	8a\J	16F#X\	-re	8a\	-di-	et
.	.	.	.	16F#\	in	.	.	.
8E\L	#	8e/L	8g#X/	8E\	me-	8g#X\	-o	ex-
8C\J	6	8a/	4ee\	16C/	-di-	8ee\	i-	-au-
.	.	.	.	16C/	-o	.	.	.
!	!	!	!	!	!	!LO:SIC:custos ee:v	!	!
!	!	!	!	!	!	!LO:LB:g=original	!	!
4D\	9	8f/	.	8D\	i-	8ee\	-ni-	-di-
.	8	8a/J	[>8dd\	16D\	-ni-	8dd\	-mi-	-am
.	.	.	.	16D\	-mi-	.	.	.
!	!	!	!	!LO:LB:g=original	!	!	!	!
=8	=8	=8	=8	=8	=8	=8	=8	=8
!LO:TX:a:t=P:problem=mixed beam	!	!	!	!	!	!	!	!
8E\L	#	8g#X/L	8dd\L]	8E\	-co-	8dd\	-co-	o-
8AA/J	.	8a/	8cc\J	16A\	-ru(m)	16cc\	-rum	-ra-
.	.	.	.	16A\	tu-	16cc\	tu-	-ti-
4E\	4	8a/	4b/	4E\	-o-	4b\	-o-	-o-
.	#	8g#/J	.	.	.	.	.	.
!LO:TX:a:t=P:problem=mixed beam	!	!	!	!	!	!	!	!
8AA/L	.	8a\L	8a/L	8AA/	-ru(m),	8a\	-ru(m)	-nem
!LO:TX:a:Bi:t=T&colon;	!	!	!	!	!	!	!	!
8A\	.	8cc\	8ee/J	8A\	te-	8cc\	te-	me-
8G#X\	6	8b\	16ee\LL	8G#X\	-cu(m)	8b\	-cu(m)	-am
.	.	.	16ee\	.	.	.	.	.
8c\J	6	8ee\J	16aa\	8c\	prin-	8ee\	prin-	Fi-
.	.	.	16aa\JJ	.	.	.	.	.
=9	=9	=9	=9	=9	=9	=9	=9	=9
8B\L	6\	8dd\L	16aa\LL	16B\	-ci-	16dd\	-ci-	-li-
.	.	.	16aa\	16B\	-pi-	16dd\	-pi-	-j
8E\	.	16cc\L	16gg#X\	16E,\	-um	16cc\	-um	ho-
.	.	16b\JJ	16gg#\JJ	16E\	in	16b\	in	-mi-
8A\	.	16cc\LL	8aa\L	8A\	di-	8cc\	di-	-nu(m)
.	.	16cc\	.	.	.	.	.	.
8A\J	.	16cc\	8ccc\J	16A\	-e	16cc\	-e	us-
.	.	16cc\JJ	.	16A\	Vir-	16cc\	vir-	-que-
!	!	!	!LO:LB:g=original	!	!	!	!	!
8Gn\L	6	8b\L	8bb\L	8G\	-tu-	8b\	-tu-	-quo
8E\J	.	8ee\	16ccc\L	8E\	-tis	8ee\	-tis	gra-
.	.	.	16bb\JJ	.	.	.	.	.
4F\	7	8ee\	4aa\	4F\	tu-	8ee\L	tu-	-vi
.	6	8dd\J	.	.	.	8dd\J	.	.
=10	=10	=10	=10	=10	=10	=10	=10	=10
8E\L	#	8ee\L	8gg#X\L	8E\	-ae	8ee,\	-ae	Cor-
8C#X\J	6	8ee\J	8aa\J	8C#X/	ex	16ee\	in	-de
.	9	.	.	.	.	16ee\	sple(n)-	ut
16D\LL	.	8ff\L	16aa\LL	16D\	u-	16ff\	-do-	quid
16E\	.	.	16aa\	16E\	-te-	16ee\	-ri-	di-
16F\	6	16ee\L	16aa\	16F\LL	-ro	16dd,\	-b(us)	-li-
16G\JJ	.	16dd\JJ	16aa\JJ	16G\JJ	.	16dd\	San-	-gi-
8A\L	#	8cc#X\L	16ee\LL	8A\	an-	8cc#X\	-cto-	-tis
.	.	.	16ee\	.	.	.	.	.
8F\J	6	8dd\J	16aa\	16F\	-te	8dd\	-ru(m)	.
.	.	.	16aa\JJ	16F\	lu-	.	.	.
!	!	!	!	!	!	!LO:SIC:custos dd:v	!	!
!	!	!	!	!LO:LB:g=original	!	!LO:LB:g=original	!	!
8B-X\L	.	8dd\L	16dd\LL	8B-X\	-ci-	8dd\	an-	va-
.	.	.	16dd\	.	.	.	.	.
8G\J	.	16ee\L	16bb-X\	16G\	-fe-	16ee\	-te	-ni-
!	!	!	!LO:SIC:s=16ggn:v	!	!	!	!	!
.	.	16ff\JJ	16gg#\JJ	16G\	-rum	16ff\	lu-	.
!	!	!	!LO:LB:g=original	!	!	!	!	!
=11	=11	=11	=11	=11	=11	=11	=11	=11
8A\L	#	8ee\L	4ff\	8A\L	ge-	8ee\	-ci-	-ta-
8D\J	.	8dd\	.	8D\J	.	16dd\	-fe-	-tem
.	.	.	.	.	.	16dd\	-ru(m)	et
4AA/	4	8dd\	4ee\	8AA/	.	8cc#X\	ge-	quae-
.	#	8cc#X\J	.	16AA/	-nu-	16cc#\	-nu-	-ri-
.	.	.	.	16AA/	-i	16cc#\	-i	-tis
!	!	!LO:LB:g=original	!	!	!	!	!	!
!LO:TX:a:Bi:t=S&colon;	!	!LO:TX:a:t=P:problem=mixed beam	!	!	!	!	!	!
4D\	.	8dd\L	8dd\L	4D\	te,	8dd\	te,	men-
.	.	8f/J	8dd\J	.	.	8dd\	Ju-	-da-
4E\	6	8.gT>/L	16cc\LL	4r	.	(>16cc#\LL	-ra-	.
.	-5	.	16dd\	.	.	16dd\JJ)	.	.
.	.	.	16cc\	.	.	(>16cc#\LL	-vit	.
.	.	32f/LL	16b-X\JJ	.	.	16b-X\JJ)	.	.
.	.	32g/JJJ	.	.	.	.	.	.
=12	=12	=12	=12	=12	=12	=12	=12	=12
!	!	!	!LO:TX:a:t=P:problem=mixed beam	!	!	!	!	!
!	!	!	!	!	!	!LO:SIC:l=2:s=-ci-:v:t=dotyczy drugiego wersu	!	!
4F\	.	16a/LL	8a/L	8r	.	16a\	Do-	-ti-
.	.	16g/J	.	.	.	16g\	-mi-	.
.	.	8f/J	8aa\J	16A\	et	8f/	-n(us),	-um
.	.	.	.	16B\	non	.	.	.
4E\	6	4r	16gg\LL	8c\	poe-	4r	.	.
.	.	.	16ff\	.	.	.	.	.
.	.	.	16ee\	8G\	-ni-	.	.	.
.	.	.	16dd\JJ	.	.	.	.	.
!LO:SIC:custos F:v	!	!	!	!	!	!	!	!
!LO:LB:g=original	!	!	!	!	!	!	!	!
8F\L	.	8r	8cc\L	8A\	-te-	8r	.	.
8E\J	.	8cc/L	16dd\L	8G\	-bit	8cc\	Tu	et
.	.	.	16ee\JJ	.	.	.	.	.
4D\	7	8cc/	16ff\LL	4F\	e-	8cc\	es	ſci-
.	6\	.	16gg\	.	.	.	.	.
!	!	!LO:SIC:s=8bn:v	!	!	!	!	!	!
.	.	8b-X/J	16aa\	.	.	8bn\	Sa-	-to-
.	.	.	16bb\JJ	.	.	.	.	.
!	!	!	!LO:LB:g=original	!	!	!	!	!
=13	=13	=13	=13	=13	=13	=13	=13	=13
4C/	.	8cc/L	8ccc\L	4E\	-um	16cc\	-cer-	-te
.	.	.	.	.	.	16cc\	-dos	quo-
.	.	16g/L	8ee\J	.	.	16g\	in	-ni-
.	.	16a/JJ	.	.	.	16a\	ae-	-am
8D\L	-6	4b-X/	8ff\L	4r	.	4b-X\	-ter-	mi-
8E\J	.	.	8gg\J	.	.	.	.	.
4F\	.	4a/	4aa\	16r	.	4a\	-nu(m)	-ri-
.	.	.	.	16F\	Se-	.	.	.
.	.	.	.	16G\	-cun-	.	.	.
.	.	.	.	16A\	-du(m)	.	.	.
4BB-X/	.	16r	8r	8D\	or-	16r	.	.
.	.	16b-X\LL	.	.	.	16b-X\	Se-	-fi-
.	.	16cc\	16bb-X\LL	16D\	-di-	16cc\	-cu(n)-	-ca-
.	.	16dd\JJ	16aa\JJ	16D\	-ne(m)	16dd\	-du(m)	-vit
!	!	!	!	!	!	!LO:SIC:custos g:v	!	!
!	!	!	!	!LO:LB:g=original	!	!LO:LB:g=original	!	!
=14	=14	=14	=14	=14	=14	=14	=14	=14
8C\L	.	8g/L	16gg\LL	16E\	or-	16g/	or-	Do-
.	.	.	16cc\J	16E\	-di-	16g/	-di-	-mi-
8F\J	.	16f/L	8ff\J	16F,\	-ne(m)	16f,/	-ne(m)	-ne[us]
.	.	16g/JJ	.	16F\	Mel-	16g/	Mel-	ex-
4C\	4	4g/	8ff\L	8.F\	-chi-	8.g/	-chi-	-au-
.	3	.	8ee\J	.	.	.	.	.
.	.	.	.	16E\	-se-	16f/	-ſe-	-di-
!LO:TX:a:Bi:t=T.	!	!	!	!	!	!	!	!
8F\L	.	8f/L	8ff\L	8F,\	-dech	8f,/	-dech	-et
16F\L	.	16a/L	16aa\L	16F\	Do-	16a\	D(o-	me-
!	!	!LO:SIC:s=18b-:v	!	!	!	!	!	!
16G\JJ	.	16b/JJ	16gg\JJ	16G\	-mi-	16b-X\	-mi-	.
8A\L	6	8cc\L	8ff\L	8A\	-n(us)	8cc,\	-nus)	-cu(m)
8B-X\J	.	8dd\J	8ff\J	8B-X\	a	8dd\	a	Cla-
=15	=15	=15	=15	=15	=15	=15	=15	=15
8A\L	.	8cc\L	16ff\LL	8A\	dex-	8cc\	dex-	-ma-
.	.	.	16ff\	.	.	.	.	.
8G\	-	16dd\L	16gg\	8G\	-tris	8b-X\	-tris	-ve-
.	.	16ee\JJ	16gg\JJ	.	.	.	.	.
8F\	.	8ff\L	16aa\LL	8F\	tu-	8a\	tu-	-ro
.	.	.	16aa\	.	.	.	.	.
8C\J	.	8cc\J	16gg\	16C/	-is	16cc,\	-is	ad
.	.	.	16gg\JJ	16C/	con-	16cc\	con-	E-
8F\L	.	16cc\LL	16aa\LL	8F\	-fre-	8cc\	-fre-	-um
.	.	16cc\	16cc\	.	.	.	.	.
8E\	.	16cc\	16gg\	16E\	-git	16cc,\	-git	ad
.	.	16cc\JJ	16cc\JJ	16E\	in	16cc\	in	E-
8F\	.	16cc\LL	16aa\LL	16F\	di-	16cc\	di-	-um
.	.	16cc\	16cc\	16F\	-e	16cc\	-e	.
8E\J	.	16cc\	16gg\	16E\	i-	16cc\	i-	.
.	.	16cc\JJ	16cc\JJ	16E\	-rae	16cc\	-rae	.
!	!	!LO:LB:g=original	!	!	!	!	!	!
=16	=16	=16	=16	=16	=16	=16	=16	=16
8D/L	6	8b\L	8ff\L	8D/	ſu-	8b\	ſu-	I-
8C/J	.	8cc\	16gg\L	8C/	-ae	8cc\	-ae	-ra-
.	.	.	16aa\JJ	.	.	.	.	.
4D/	7	8cc\	4ff\	4D/	re-	8cc\L	re-	-sci-
.	6	8b\J	.	.	.	8b\J	.	-mi-
!	!	!	!LO:SIC:custos ee:v	!	!	!	!	!
!	!	!	!LO:LB:g=original	!LO:LB:g=original	!	!	!	!
!LO:TX:a:t=P:problem=mixed beam	!	!	!	!	!	!	!	!
8C/L	.	8cc\L	8ee\L	8C/	-ges,	8cc\	-ges	-ni
16c\L	.	16ee\L	16gg\L	16c\	Ju-	16ee\	Ju-	et
16B\JJ	.	16dd\JJ	16gg\JJ	16B\	-di-	16dd\	-di-	no-
!	!	!	!	!	!	!LO:SIC:custos ee:v	!	!
!	!	!	!	!	!	!LO:LB:g=original	!	!
8c\L	.	16ee\LL	16gg\LL	8c\	-ca-	8ee\	-ca-	-li-
.	.	16ee\	16gg\	.	.	.	.	.
8B\J	.	16dd\	16gg\	16B\	-bit	16dd\	-bit	-te
.	.	16ee\JJ	16gg\JJ	16B\	in	16ee\	in	pec-
=17	=17	=17	=17	=17	=17	=17	=17	=17
8A\L	.	16cc/LL	16ff\LL	8A\	na-	8ff\	na-	-ca-
.	.	16cc/	16ff\	.	.	.	.	.
8G\	.	16b/	16ee\	8G\	-ti-	8ee\	-ti-	re
.	.	16b/JJ	16ee\JJ	.	.	.	.	.
8F\	.	16a/LL	16aa\LL	16F\	-o-	16dd\	-o-	.
.	.	16a/	16aa\	16F\	-ni-	16dd\	-ni-	.
8E\J	.	16cc/	16gg\	16E\	-b(us)	16cc\	-b(us)	.
.	.	16cc/JJ	16gg\JJ	16E\	im-	16cc\	im-	.
8F\L	.	8cc\L	8aa\L	8F\	-ple-	8a\	-ple-	.
8G\J	.	8b\J	8gg\	16G\	-bit	16b\	-bit	.
.	.	.	.	16G\	ru-	16b\	ru-	.
4A\	7	4cc\	8gg\	4A\	-i-	4cc\	-i-	.
.	6\	.	8ff#X\J	.	.	.	.	.
!LO:SIC:custos G:v	!	!	!	!	!	!	!	!
!LO:LB:g=original	!	!	!	!	!	!	!	!
=18	=18	=18	=18	=18	=18	=18	=18	=18
4G\	.	4b/	4gg\	4G\	-nas	4b\	-nas	.
8c\L	.	16ee\LL	16gg\LL	8c\	co(n)-	16ee\LL	con-	.
.	.	16gg\	16gg\	.	.	16gg\JJ	.	.
8c\J	.	16ee\	16gg\	8c\	-quaſ-	16ee\LL	-quaſ-	.
.	.	16cc\JJ	16gg\JJ	.	.	16cc\JJ	.	.
8G\L	.	16dd\LL	16gg\LL	8G\	-sa-	8dd\	-sa-	.
.	.	16gg\	16gg\	.	.	.	.	.
8G\J	.	16dd\	16gg\	8G,\	-bit	16cc\LL	-bit	.
.	.	16b\JJ	16gg\JJ	.	.	16b\JJ	.	.
8E\L	6	16cc\LL	16gg\LL	16E\	ca-	16cc\	ca-	.
.	.	16ee\	16gg\	16E\	-pi-	16cc\	-pi-	.
8C\J	.	16cc\	16gg\	16C/	-ta	16g\	-ta	.
.	.	16g\JJ	16gg\JJ	16C/	in	16g\	in	.
!	!	!	!	!LO:LB:g=original	!	!	!	!
=19	=19	=19	=19	=19	=19	=19	=19	=19
8F\L	.	16a/LL	16aa\LL	8F\L	ter-	8a\L	ter-	.
.	.	16cc/	16ff\	.	.	.	.	.
8E\	.	16g/	16cc\	8E\J	.	8g\J	.	.
.	.	16cc/JJ	16gg\JJ	.	.	.	.	.
8F\	.	8a/L	8ff\L	8F\	-ra	8a\	-ra	.
8D\J	.	16dd/L	16dd\L	8F#X\	mul-	16dd\LL	mul-	.
.	.	16cc/JJ	16ee\JJ	.	.	16cc\JJ	.	.
!LO:TX:a:t=P:problem=mixed beam	!	!	!	!	!	!	!	!
8G\L	.	8b\L	16ff\LL	8G\L	-to-	8b\L	-to-	.
.	.	.	16dd\	.	.	.	.	.
8F#X\	6 5	8cc\J	16ee\	8F#X\J	.	8cc\J	.	.
.	.	.	16cc\JJ	.	.	.	.	.
8G\	.	4b/	4dd\	4G\	.	4b\	.	.
8GG/J	.	.	.	.	.	.	.	.
!	!	!	!	!	!	!LO:SIC:custos cc:v	!	!
!	!	!	!LO:LB:g=original	!	!	!LO:LB:g=original	!	!
=20	=20	=20	=20	=20	=20	=20	=20	=20
4C/	.	4cc\	4ee\	4C/	-rum.	4cc\	-ru(m)	.
!LO:TX:a:Bi:t=S&colon;	!	!	!	!	!	!	!	!
8E\L	.	4r	4r	4r	.	8r	.	.
8D\J	.	.	.	.	.	16g\	de	quo-
.	.	.	.	.	.	16g\	tor-	-ni-
4C/	.	2r	2r	2r	.	8cc\	-re(n)-	-am
.	.	.	.	.	.	16g\	-te	tu
.	.	.	.	.	.	16g\	in	Do-
4BB/	6	.	.	.	.	16dd\LL	vi-	-mi-
.	.	.	.	.	.	16b\JJ	.	.
.	.	.	.	.	.	8g\	-a	-ne
=21	=21	=21	=21	=21	=21	=21	=21	=21
!	!	!LO:TX:a:Bi:t=1.	!	!	!	!	!	!
4C/	.	1r	1r	2r	.	16ee\LL	bi-	Do-
.	.	.	.	.	.	16dd\JJ	.	-mi-
.	.	.	.	.	.	8cc\	-bet	-ne
8E\L	.	.	.	.	.	8r	.	.
8C\J	.	.	.	.	.	16ee\LL	pro-	ſin-
.	.	.	.	.	.	16dd\JJ	.	-gu-
8C/L	.	.	.	4r	.	8ee\	-pte-	-la-
8CC/	.	.	.	.	.	16cc\	-re-	-ri-
.	.	.	.	.	.	16dd\	-a	-ter
8C/	.	.	.	8r	.	16ee\	ex-	in
.	.	.	.	.	.	16ff#X\	-al-	ſpe
*	*	*	*	*	*	*	*	*ij
8BB/J	.	.	.	[>8G\	Glo-	16gg\	-ta-	in
.	.	.	.	.	.	16dd\	-bit	ſpe
*	*	*	*	*	*	*	*	*Xij
!	!	!LO:LB:g=original	!	!	!	!	!	!
=22	=22	=22	=22	=22	=22	=22	=22	=22
4AA/	7	4r	4r	8G\]	.	4cc\	ca-	in
.	6\	.	.	16F#X\	-ri-	.	.	.
.	.	.	.	16F#\	-a	.	.	.
!LO:TX:a:t=P:problem=mixed beam	!	!	!	!	!	!	!	!
8GG/L	.	8r	16r	8G\	Pa-	4b\	-put.	ſpe
.	.	.	16g\LL	.	.	.	.	.
8G\J	.	8b/	16b\	16G,\	-tri,	.	.	.
.	.	.	16dd\JJ	16G\	et	.	.	.
8F\L	.	8cc\L	8.ff\L	8A\	Fi-	2r	.	.
8D\J	6	8dd\	.	8B\	-li-	.	.	.
.	.	.	16ff\Jk	.	.	.	.	.
8C/L	.	8ee\	8gg\L	8c\	-o,	.	.	.
8AA/J	.	8ee\J	16aa\L	16c\	et	.	.	.
.	.	.	16gg\JJ	16c\	Spi-	.	.	.
=23	=23	=23	=23	=23	=23	=23	=23	=23
!	!	!LO:TX:a:t=P:problem=mixed beam	!	!	!	!	!	!
8BB\L	7 #	8dd#X\L	8ff#X\L	8B\	-ri-	2r	.	.
8E\J	.	16ee\L	8ee\J	16A\	-tu-	.	.	.
.	.	16e/JJ	.	16G\	-i	.	.	.
4BB/	4 x	4f#X/	4dd#Xt>\	4F#X\	San-	.	.	.
.	# x	.	.	.	.	.	.	.
!LO:SIC:custos E:v	!	!	!	!	!	!	!	!
!LO:LB:g=original	!	!	!	!	!	!	!	!
!LO:TX:a:Bi:t=T&colon;	!	!LO:TX:a:t=P:problem=mixed beam	!	!	!	!	!	!
8E\L	.	16e/LL	4ee\	8E,\	-cto,	8r	.	.
.	.	16ee\	.	.	.	.	.	.
8C\	.	16ee\	.	16C/	Si-	16ee\	Si-	.
.	.	16ee\JJ	.	16C/	-cut	16ee\	-cut	.
!	!	!	!	!LO:SIC:custos D:v	!	!	!	!
!	!	!	!	!LO:LB:g=original	!	!	!	!
8D\	9 x	16ee\LL	4r	16D\	e-	16ee\	e-	.
.	.	16ee\	.	16D\	-rat	16ee\	-rat	.
!	!	!LO:SIC:s=16ddn:v	!	!	!	!	!	!
8D\J	8 x	16dd#\	.	16D\	in	16dd\	in	.
!	!	!LO:SIC:s=16ddn:v	!	!	!	!	!	!
.	.	16dd#\JJ	.	16D\	prin-	16dd\	prin-	.
!	!	!	!	!	!	!LO:LB:g=original	!	!
=24	=24	=24	=24	=24	=24	=24	=24	=24
8E\L	7 x	16dd\LL	16r	16E\	-ci-	16dd\	-ci-	.
.	.	16dd\	16gg\LL	16E\	-pi-	16dd\	-pi-	.
8E\	6 x	16cc\	16gg\	16E\	-o,	16cc\	-o,	.
.	.	16cc\JJ	16gg\JJ	16E\	et	16cc\	et	.
8F\	9 x	16a/LL	16gg\LL	8Fn\	nu(n)c,	8cc,\	nu(n)c,	.
.	.	16a/	16gg\	.	.	.	.	.
8F\J	8 x	16a/	16ff\	8F\	et	8dd\	et	.
.	.	16a/JJ	16ff\JJ	.	.	.	.	.
8G\L	.	16b\LL	16ff\LL	8G\	ſe(m)-	8b\	ſem-	.
.	.	16b\	16ff\	.	.	.	.	.
8G\J	6 4	16cc\	16ee\	8G\	-per,	16g\LL	-per,	.
.	.	16cc\JJ	16ee\JJ	.	.	16a\JJ	.	.
8G\L	5 3	8b\L	8dd\L	8G\	et	8b\	et	.
16A\L	.	16cc\L	8gg\J	16A\LL	in	16cc\LL	in	.
16B\JJ	.	16dd\JJ	.	16B\JJ	.	16dd\JJ	.	.
=25	=25	=25	=25	=25	=25	=25	=25	=25
4c\	.	16ee\LL	8gg\L	8.c\	ſae-	8.ee\	ſae-	.
.	.	16gg\	.	.	.	.	.	.
.	.	16ee\	8ccc\	.	.	.	.	.
.	.	16cc\JJ	.	16c\	-cu-	16ee\	-cu-	.
8G\L	.	8dd\L	8bb\	8G\	-la	8dd\	-la	.
8B\J	.	8dd\J	8gg\J	16B\	ſae-	16dd\	ſae-	.
.	.	.	.	16B\	-cu-	16dd\	-cu-	.
[>4c\	.	16ee\LL	8gg\L	[>4c\	-lo-	16ee\LL	-lo-	.
.	.	16dd\	.	.	.	16dd\JJ	.	.
.	.	16ee\	8ccc\	.	.	16ee\LL	-rum	.
.	.	16cc\JJ	.	.	.	16cc\JJ	.	.
16c\LL]	4 2	8.ff\L	8ddd\	16c\LL]	.	[>4dd\	A-	.
16B\	.	.	.	16B\	.	.	.	.
16c\	.	.	8ccc\J	16c\	.	.	.	.
16A\JJ	.	16ee\Jk	.	16A\JJ	.	.	.	.
=26	=26	=26	=26	=26	=26	=26	=26	=26
8B\L	6 5	8dd\L	8ddd\L	8B\	.	8dd\]	.	.
!	!	!LO:TUP:a:problem=klamra łukowa	!	!	!	!	!	!
8c\J	.	24ee\L	8ccc\J	8c,\	-rum	8ee,\	-men	.
.	.	24dd\	.	.	.	.	.	.
.	.	24cc\JJ	.	.	.	.	.	.
!LO:TX:a:t=P:problem=w źródle cyfrowwanie '3' z kropką	!	!	!	!	!	!	!	!
4G\	4 x	4dd\	8ccc\L	4G\	a-	4dd\	a-	.
.	3 x	.	8bb\J	.	.	.	.	.
4C/	.	4ee\	4ccc\	4C/	-men.	4ee\	-men.	.
4r	.	4r	4r;>	4r	.	4r	.	.
!	!	!	!	!LO:TX:a:t=P:problem=w źródle pomazana kreska końcowa [możliwa fermata]	!	!LO:TX:a:t=P:problem=w źródle ozdobna kreska końcowa	!	!
!LO:TX:a:t=P:problem=w źródle ozdobna kreska końcowa	!	!LO:TX:a:t=P:problem=w źródle ozdobna kreska końcowa &colon;||&colon;	!LO:TX:a:t=P:problem=w źródle ozdobna kreska końcowa	!	!	!	!	!
==;;	==	==;;	==	==	==	==	==	==
*-	*-	*-	*-	*-	*-	*-	*-	*-
!!title: @{OTL};
!!!RDF**kern: > = above
!!!RDF**kern: < = below
!!!EED: Wojciech Jakubiak-Danek
!!!EST: 2020-12-30
!!!URL-scan: http://repozytorium.nifc.pl/skany/pl-cz-nut--iii-50
!!!ONB-nifc: UWAGA: części Vesperae: Dixit Dominus, Confitebor, Beatus vir, Laudate pueri, Laudate Dominum, In exitu, Laetatus sum, Nisi Dominus, Lauda Jerusalem, Credidi, In convertendo, Domine probasti me, Memento Domine David, Confitebor, De profundis, Beati omnes, Magnificat
!!!AIN: 1 empty 1 organ 2 violn 1 vox
!!!ENC: Andrzej Borzym
!!!END: 2020-06-23
